X:1
T:Title
%%score ( 1 2 ) { 3 | 4 }
L:1/8
M:3/2
K:Ab
V:1 treble nm="Grand Piano, Unnamed-000"
V:2 treble 
V:3 bass nm="Choir Pad, Selena"
V:4 bass 
V:1
 [CE]2 [CE]2 [CE]2 [DF]6 | E2 [B,E]2 [B,=D]2 [B,E]6 | [EG]2 [EG]2 [EA]2 [EB]6 | %3
w: By~Isaac~Baker~Woodbury,~1850 * * *|||
 [EA]2 [EA]2 [EG]2 [EA]6 | [CE]2 [CE]2 [CE]2 [DF]6 | E2 [B,E]2 [B,=D]2 [B,E]6 | %6
w: |||
 [EG]2 [EG]2 [EA]2 [EB]6 | [EA]2 [EA]2 [EG]2 [EA]6 | [Ec]2 [Ec]2 [Ec]2 [Fd]6 | %9
w: |||
 [Ec]2 [DB]2 [CA]2 [DF]6 | [DF]2 [DF]2 [DF]2 E2 [DE]2 [CE]2- | [CE]2 E2- [CE]2 [CE]6- | %12
w: |||
 [CE]4 z4 z4 |] %13
w: |
V:2
 x12 | x12 | x12 | x12 | x12 | x12 | x12 | x12 | x12 | x12 | x12 | z2 B,2 z4 z4 | x12 |] %13
V:3
 A,2 A,2 A,2 A,6 | A,2 G,2 F,2 G,6 | B,2 B,2[K:treble] C2 D6 | C2 C2 B,2 C6 | A,2 A,2 A,2 A,6 | %5
 A,2 G,2 F,2 G,6 | B,2 B,2[K:treble] C2 D6 | C2 C2 B,2 C6 | A,2 A,2 A,2 A,6 | A,2 G,2 A,2 A,6 | %10
 A,2 A,2 A,2 A,2 G,2 A,2- | A,2 F,2 B,2 A,6- | A,4 z4 z4 |] %13
V:4
 A,,2 A,,2 A,,2 D,6 | C,2 B,,2 B,,2 E,6 | E,2 E,2 E,2 E,6 | E,2 E,2 E,2 A,,6 | A,,2 A,,2 A,,2 D,6 | %5
 C,2 B,,2 B,,2 E,6 | E,2 E,2 E,2 E,6 | E,2 E,2 E,2 A,,6 | z12 | z2 E,2 F,2 D,6 | %10
 D,2 D,2 D,2 C,2 B,,2 A,,2- | A,,2 E,4 A,,6- | A,,4 z4 z4 |] %13

